X: 4069
T: Bletherskate, The
R: strathspey
M: 4/4
K: Amixolydian
|:A2BA Bde2|BdBe eAAG|A2BA Bde2|BdBg eA~A2:|
ea~a2 egfg|de~e2 edBG|ea~a2 eg~e2|a2ed eA~A2|
ea~a2 egfg|de~e2 edBG|A2BA Bde2|BdBg eA~A2||

